X: 842
T: Rose of Sharon
C:James Scott Skinner (1843-1927)
B: jims roots
M:3/4
L:1/8
R: Waltz
Q: 1/4=100
K:A
V:1 
%Q:1/4=100
%S: Scottish fiddler
%S:Jim Coon to CoMandoList TOW
 e2 d2 | "A"c3 dc2 | "E"B2 c2 B2 | "A"A6- | A2 B2 c2 | "D"d2 e2 f2 |
"A"eA- A2 c2 | "E"B6- | B2 e2 d2 |  "A"c3d cB | A2 B2 c2 | "D"d2 A2 a2 |
f4 ga | "A"eA- A2 dE | "E"c4 BG | "A"A6- | A2 c2 d2 || "A7"e2 f2 (3=gfg |
f3 c e2 | "D"d6- | d6 | "B7"f2 g2 (3aga | g4 f^d | "E"e6- | e2 f2 g2 | "A"(3agf e2 c2 |
AG- G2 =G2 | "D"F2 B2 d2 | f3 a gf | "A"eA- A2 dE | "E"c4 BG | "A"A6- | A2 ||
% abcbook-tune_id 6298c2875925123de371243b


% abcbook-boost 0
% abcbook-tablature 
% abcbook-transpose 
% abcbook-lastupdated 1654178439818
% abcbook-soundfonts 
% abcbook-repeats 1


